ZKTeco/img/star.svg

<svg width="39" height="39" viewBox="0 0 39 39" fill="none" xmlns="http://www.w3.org/2000/svg">
<path d="M19.5 0L22.0309 1.89701L24.9938 0.789886L26.8877 3.3231L30.0425 3.09556L31.146 6.05975L34.2371 6.73022L34.4609 9.88524L37.2378 11.3994L36.5636 14.4897L38.8015 16.7249L37.284 19.5L38.8015 22.2751L36.5636 24.5103L37.2378 27.6006L34.4609 29.1148L34.2371 32.2698L31.146 32.9403L30.0425 35.9044L26.8877 35.6769L24.9938 38.2101L22.0309 37.103L19.5 39L16.9691 37.103L14.0062 38.2101L12.1123 35.6769L8.9575 35.9044L7.85396 32.9403L4.76288 32.2698L4.53915 29.1148L1.76218 27.6006L2.43638 24.5103L0.198483 22.2751L1.716 19.5L0.198483 16.7249L2.43638 14.4897L1.76218 11.3994L4.53915 9.88524L4.76288 6.73022L7.85396 6.05975L8.9575 3.09556L12.1123 3.3231L14.0062 0.789886L16.9691 1.89701L19.5 0Z" fill="#78BC27"/>
</svg>

<svg width="39" height="39" fill="none" xmlns="http://www.w3.org/2000/svg"><path d="M19.5 0l2.53 1.897L24.995.79l1.894 2.533 3.154-.227 1.104 2.964 3.091.67.224 3.155 2.777 1.514-.674 3.09 2.237 2.236-1.517 2.775 1.517 2.775-2.237 2.235.674 3.09-2.777 1.515-.224 3.155-3.091.67-1.104 2.964-3.154-.227-1.894 2.533-2.963-1.107L19.5 39l-2.53-1.897-2.964 1.107-1.894-2.533-3.155.227-1.103-2.964-3.091-.67-.224-3.155L1.762 27.6l.674-3.09-2.238-2.236L1.716 19.5.198 16.725l2.238-2.235-.674-3.09L4.54 9.884l.224-3.155 3.091-.67 1.103-2.964 3.155.227L14.006.79l2.963 1.107L19.5 0z" fill="#78BC27"/></svg>
